public/technologies/nestjs_icon.svg

<svg width="130" height="128" viewBox="0 0 130 128" fill="none" xmlns="http://www.w3.org/2000/svg">
<path fill-rule="evenodd" clip-rule="evenodd" d="M76.3655 0.249475C75.4432 0.249475 74.5815 0.446014 73.7953 0.703027C75.481 1.83691 76.4033 3.31095 76.8719 4.99666C76.9022 5.22343 76.9702 5.38973 77.0004 5.62407C77.0307 5.8584 77.076 6.01715 77.076 6.22881C77.2121 9.1391 76.3201 9.50194 75.6851 11.2179C74.7251 13.4327 74.9897 15.8139 76.1387 17.7188C76.2439 17.9738 76.3756 18.217 76.5318 18.4445C75.2769 10.084 82.2541 8.82161 83.5391 6.21369C83.6374 3.93081 81.7552 2.41141 80.266 1.35312C78.8449 0.49137 77.5447 0.219238 76.3655 0.219238V0.249475ZM86.8727 2.13928C86.7367 2.8952 86.8425 2.69866 86.7972 3.09929L86.7216 3.96104L86.4948 4.75476C86.4192 5.01933 86.3285 5.28391 86.2302 5.54848L85.8674 6.3044C85.7691 6.44046 85.7011 6.56897 85.6028 6.69748L85.4063 6.99984L84.9074 7.6575C84.7108 7.85403 84.5445 8.08837 84.3026 8.26223C84.0607 8.43609 83.9095 8.65531 83.6752 8.82161C82.9798 9.35076 82.186 9.74384 81.4604 10.2427C81.2336 10.409 81.0068 10.5451 80.8027 10.7416C80.579 10.8999 80.3691 11.077 80.1753 11.2708C79.9485 11.4673 79.7822 11.6639 79.5706 11.8982C79.3589 12.1325 79.2077 12.3291 79.0716 12.5559L78.6181 13.2513L78.2553 14.0072L77.9907 14.7631L77.7639 15.5947C77.7337 15.7307 77.7337 15.897 77.6883 16.0255C77.643 16.154 77.6581 16.2901 77.6127 16.4186L77.5825 17.2501C77.5825 17.4467 77.5825 17.6432 77.6127 17.8549C77.6127 18.1194 77.643 18.384 77.711 18.6864C77.779 18.9887 77.8093 19.2155 77.8773 19.4801L78.1419 20.2738C78.2175 20.4401 78.3082 20.6064 78.3686 20.7274L70.7641 17.7793L66.9316 16.7966L64.8452 16.2977C62.8555 15.9011 60.8473 15.6034 58.8281 15.4057C58.7525 15.4057 58.7298 15.3754 58.6618 15.3754L52.7429 15.0731L48.4115 15.2394C46.3932 15.3754 44.3749 15.6325 42.3642 15.9651L40.875 16.2296L37.8967 16.8873L36.4075 17.2804L34.9864 17.9078L33.8979 18.4067C33.8223 18.4369 33.7618 18.4369 33.7315 18.4823L32.8093 18.9358C32.7111 18.9661 32.643 19.0114 32.5825 19.0341L31.5545 19.5632C31.3277 19.6615 31.1009 19.79 30.8968 19.8958C30.7986 19.9714 30.6701 20.0244 30.5945 20.0621L29.7327 20.5611C29.459 20.7123 29.194 20.8789 28.939 21.06L28.2814 21.5135L27.5557 22.0427L26.9963 22.4962C26.9207 22.5264 26.8602 22.5945 26.7998 22.6323L26.3009 23.0632C26.2706 23.1387 26.2026 23.1614 26.1648 23.1992L25.5601 23.7586L24.9024 24.386L24.343 24.9907C24.2674 25.0663 24.1767 25.1268 24.1162 25.1873C23.9386 25.3945 23.752 25.5937 23.5569 25.7845C23.5266 25.8601 23.4586 25.8827 23.4208 25.9508L22.6649 26.7445L20.8809 28.4604C20.2762 28.9896 19.6563 29.4885 19.0289 29.9118L17.0484 31.1666C16.3907 31.5295 15.6877 31.8621 14.962 32.1493C14.2596 32.4481 13.5431 32.713 12.8152 32.943C11.4243 33.2454 10.0032 33.8048 8.77862 33.9031C8.51405 33.9031 8.21924 33.9786 7.9471 34.0013L7.11559 34.1979L6.32188 34.5002C6.05124 34.6075 5.78632 34.7286 5.52816 34.8631C5.30138 35.0294 5.02925 35.1654 4.80248 35.3166C4.5757 35.4678 4.34892 35.6795 4.14483 35.876C3.94073 36.0725 3.69127 36.2691 3.48717 36.4807L2.92779 37.1384C2.76149 37.403 2.56495 37.6373 2.42889 37.8943C2.25588 38.1366 2.10172 38.3919 1.96777 38.6578L1.60493 39.5195L1.30256 40.3813L1.13626 41.175C1.03799 41.5681 1.03799 41.9687 1.0002 42.1577C0.962401 42.3467 1.0002 42.5961 1.0002 42.8305C0.993775 42.9748 1.00392 43.1194 1.03043 43.2613C1.06067 43.4881 1.10603 43.6922 1.1665 43.8888L1.39328 44.4935C1.49154 44.7203 1.62005 44.9244 1.75612 45.1209L2.18699 45.7256L2.74637 46.2548C2.94014 46.4486 3.15004 46.6256 3.37379 46.7839C4.1675 47.4794 4.35648 47.7062 5.39209 48.2353C5.5584 48.3336 5.7247 48.4016 5.92124 48.4999C6.01951 48.5981 6.01951 48.6284 6.0573 48.6964C6.08754 48.961 6.15557 49.2256 6.22361 49.4901C6.28673 49.7624 6.37531 50.0282 6.48818 50.2838L6.75275 50.8886C6.78299 50.9642 6.82834 51.0247 6.85102 51.0549L7.2441 51.7806L7.74301 52.476L8.30239 53.1034C8.49893 53.3 8.69547 53.4663 8.9298 53.6628L9.58745 54.1617C9.81423 54.328 10.041 54.4641 10.3131 54.5926C10.5577 54.7334 10.813 54.8548 11.0766 54.9554C11.2732 55.0537 11.5075 55.1217 11.7343 55.1822C11.961 55.2427 12.1651 55.3183 12.2936 55.3485C12.1954 57.1325 12.1576 58.8257 12.4297 59.4154C12.7321 60.073 14.1834 58.0547 15.6348 55.7492C15.4383 58.032 15.3022 60.708 15.6348 61.4941C15.9674 62.2803 17.9782 59.7404 19.7017 56.8982C43.1352 51.4782 64.5277 67.6776 66.7728 90.5517C66.3419 86.9838 61.9501 84.9957 59.9317 85.4871C58.9491 87.9362 57.2558 91.0809 54.542 93.0236C54.7688 90.8314 54.6705 88.5939 54.2094 86.4093C53.4699 89.4524 52.0713 92.2961 50.1123 94.7395C46.9753 94.9663 43.8382 93.4545 42.1752 91.1716C42.0391 91.0733 42.0089 90.8692 41.9106 90.7407L41.646 90.0453C41.5478 89.8185 41.4797 89.5917 41.4495 89.3498C41.4193 89.1079 41.4193 88.8963 41.4193 88.6241V88.1252C41.4495 87.8984 41.5175 87.6717 41.5856 87.4298L41.8123 86.7343C41.9484 86.5076 42.0391 86.2808 42.2054 86.0389C42.7648 84.527 42.7648 83.1664 41.7519 82.4105C41.5553 82.2744 41.3588 82.1837 41.1245 82.0779C40.9884 82.0476 40.8221 81.9796 40.6936 81.9418L40.429 81.8435L39.7336 81.6772C39.5075 81.6118 39.2734 81.5787 39.0381 81.5789C38.798 81.5399 38.5556 81.5171 38.3124 81.5109C38.1461 81.5109 37.9798 81.5412 37.8135 81.5412C37.5682 81.5391 37.3238 81.5722 37.0878 81.6394L36.3924 81.7679L35.6969 81.9947L35.0393 82.2971L34.4119 82.6297C26.7015 87.6565 31.3126 99.4111 36.5587 102.828C34.5782 103.191 32.5523 103.622 32.0005 104.052C33.3611 104.975 34.8428 105.715 36.3999 106.335L41.7519 107.847C44.4959 108.452 47.2701 108.641 50.0821 108.475C57.2251 107.952 63.9755 105.006 69.2167 100.125C74.458 95.2436 77.876 88.7196 78.9053 81.6319L79.1019 82.4936L79.4043 84.3456L79.5403 85.2376L79.6159 86.2203L79.6915 87.3088V87.838C79.6915 88.0043 79.7217 88.2008 79.7217 88.3671C79.7217 88.5334 79.6915 88.7602 79.6915 88.9719V89.4254C79.6915 89.6522 79.6613 89.8563 79.6613 90.0831C79.6613 90.2116 79.6613 90.3476 79.631 90.5139L79.6008 91.2396C79.5706 91.3379 79.5706 91.4361 79.5706 91.542L79.4723 92.2979C79.4723 92.3962 79.4723 92.4944 79.442 92.6003L79.3135 93.5603V93.6359L79.117 94.5581L78.9205 95.5408L78.6559 96.5688L78.3913 97.5969L78.0587 98.6552L77.333 100.575L76.9399 101.535L76.4864 102.457C76.4562 102.556 76.4108 102.624 76.3881 102.684C74.1733 107.114 70.9984 110.924 67.0298 113.887C66.7653 114.053 66.5007 114.25 66.2361 114.446C66.1605 114.522 66.0698 114.545 66.0093 114.613L65.2837 115.112L65.3819 115.308H65.4122L66.8031 115.112H66.8333L69.4034 114.658C69.6302 114.628 69.9023 114.56 70.1291 114.492L70.5827 114.393L71.2781 114.265L71.8828 114.099C75.1862 113.305 78.3838 112.209 81.4679 110.924C76.2143 118.105 69.1691 123.88 60.9371 127.683C64.7394 127.418 68.5417 126.791 72.2003 125.732C85.5196 121.801 96.7299 112.844 103.443 100.772C102.081 108.426 99.0459 115.684 94.5529 122.028C97.758 119.912 100.699 117.47 103.382 114.696C110.781 106.97 115.637 97.1653 117.299 86.5983C118.432 91.8141 118.75 97.2114 118.259 102.533C142.123 69.2423 120.239 34.727 111.077 25.6408C111.047 25.5652 111.002 25.5426 111.002 25.4745C110.926 25.8676 110.903 26.2683 110.873 26.6613C110.775 27.4173 110.677 28.1505 110.541 28.8762C110.405 29.6019 110.178 30.3276 109.981 31.0684C109.785 31.8092 109.482 32.4895 109.188 33.1849C108.893 33.8804 108.56 34.5456 108.205 35.2032C107.84 35.8498 107.444 36.478 107.018 37.0855C106.587 37.7129 106.126 38.3101 105.657 38.8695C105.164 39.4449 104.644 39.9973 104.1 40.5249C103.768 40.8273 103.473 41.0843 103.14 41.3564L102.384 42.0141C101.794 42.4824 101.175 42.9141 100.532 43.3067C99.901 43.7139 99.2501 44.0898 98.582 44.433C97.8865 44.7656 97.1911 45.0604 96.4956 45.3552C95.7917 45.6216 95.0752 45.8537 94.3488 46.0507C93.6231 46.2472 92.8596 46.4135 92.1339 46.5496C91.4083 46.6857 90.6221 46.7461 89.8889 46.8142C89.3597 46.8444 88.8306 46.8898 88.377 46.8898C87.6211 46.8898 86.8652 46.8142 86.132 46.7537C85.3987 46.6932 84.6201 46.5874 83.8793 46.4211C83.1291 46.2854 82.3891 46.0985 81.6645 45.8617H81.6342C82.3599 45.7861 83.0856 45.7257 83.8264 45.5971C84.5672 45.4686 85.3156 45.2948 86.0412 45.0982C86.7669 44.9017 87.4926 44.6674 88.188 44.4028C88.8835 44.1382 89.6092 43.798 90.2744 43.4806C90.9519 43.1502 91.6129 42.7869 92.2549 42.392C92.8823 41.9612 93.5097 41.5303 94.1069 41.0692C94.6992 40.6083 95.2622 40.1109 95.7926 39.58C96.352 39.0811 96.8509 38.5217 97.3498 37.9623C97.8487 37.403 98.3098 36.7756 98.7407 36.1784C98.8163 36.0801 98.8768 35.9516 98.9372 35.8458L99.8973 34.3339C100.26 33.6763 100.593 33.0111 100.88 32.3156C101.167 31.6202 101.439 30.9247 101.674 30.199C101.908 29.4734 102.067 28.7779 102.233 28.0522C102.399 27.3265 102.498 26.5631 102.566 25.8374C102.634 25.1117 102.694 24.3255 102.694 23.5923C102.694 23.0632 102.664 22.534 102.619 22.0805C102.543 21.3245 102.452 20.5913 102.354 19.8656C102.222 19.1199 102.056 18.3808 101.855 17.6508C101.628 16.9553 101.402 16.2296 101.129 15.5342C100.857 14.8387 100.525 14.1433 100.207 13.4932C99.8897 12.8431 99.4815 12.1703 99.0733 11.5429C98.6651 10.9155 98.2116 10.3183 97.7504 9.72872L96.2386 8.04301C95.9594 7.76012 95.672 7.48536 95.3768 7.21906C93.8957 6.06783 92.362 4.98571 90.7809 3.97616C90.5541 3.84766 90.35 3.74939 90.1232 3.64356C89.0347 2.94811 88.0066 2.58527 86.9861 2.25266L86.8727 2.13928Z" fill="#EA2845"/>
</svg>

<svg xmlns="http://www.w3.org/2000/svg" width="130" height="128" fill="none"><path fill="#EA2845" fill-rule="evenodd" d="M76.365.25c-.922 0-1.783.196-2.57.453 1.686 1.134 2.608 2.608 3.077 4.294.03.226.098.393.128.627.03.234.076.393.076.605.136 2.91-.756 3.273-1.39 4.989-.96 2.215-.696 4.596.453 6.5.105.256.237.499.393.727-1.255-8.361 5.722-9.623 7.007-12.231.098-2.283-1.784-3.803-3.273-4.86C78.845.49 77.545.218 76.366.218v.03Zm10.508 1.89c-.136.755-.03.559-.076.96l-.075.861-.227.794c-.076.264-.166.529-.265.793l-.363.756c-.098.136-.166.265-.264.393L85.406 7l-.499.657c-.196.197-.362.431-.604.605s-.394.393-.628.56c-.695.529-1.489.922-2.215 1.42-.226.167-.453.303-.657.5a4.847 4.847 0 0 0-.628.529c-.227.196-.393.393-.604.627a4.08 4.08 0 0 0-.5.658l-.453.695-.363.756-.264.756-.227.832c-.03.136-.03.302-.076.43-.045.129-.03.265-.075.394l-.03.831c0 .197 0 .393.03.605 0 .264.03.529.098.831.068.303.098.53.166.794l.265.794c.076.166.166.332.227.453l-7.605-2.948-3.832-.982-2.087-.5a61.376 61.376 0 0 0-6.017-.891c-.076 0-.098-.03-.166-.03l-5.92-.303-4.33.166a63.092 63.092 0 0 0-6.048.726l-1.489.265-2.978.657-1.49.393-1.42.628-1.09.499c-.075.03-.135.03-.166.075l-.922.454c-.098.03-.166.075-.226.098l-1.028.53c-.227.098-.454.226-.658.332-.098.075-.227.128-.302.166l-.862.5a8.314 8.314 0 0 0-.794.498l-.658.454-.725.529-.56.453c-.075.03-.136.099-.196.136l-.5.431c-.03.076-.097.098-.135.136l-.605.56-.658.627-.559.605c-.076.075-.166.136-.227.196a9.309 9.309 0 0 1-.56.598c-.03.075-.097.098-.135.166l-.756.793-1.784 1.716a18.97 18.97 0 0 1-1.852 1.452l-1.98 1.255c-.658.362-1.361.695-2.087.982-.702.3-1.419.564-2.147.794-1.39.302-2.812.862-4.036.96-.265 0-.56.076-.832.098l-.831.197-.794.302a8.49 8.49 0 0 0-.794.363c-.227.166-.499.302-.726.454a5.058 5.058 0 0 0-.657.559c-.204.197-.454.393-.658.605l-.56.657c-.166.265-.362.5-.498.756a5.82 5.82 0 0 0-.461.764l-.363.861-.302.862-.167.794c-.098.393-.098.794-.136.983-.038.189 0 .438 0 .672-.006.145.004.29.03.431.03.227.076.431.137.628l.226.604c.099.227.227.431.363.628l.431.605.56.529c.193.194.403.37.627.529.794.695.982.922 2.018 1.451.166.099.333.167.53.265.098.098.098.128.135.196.03.265.099.53.167.794.063.272.151.538.264.794l.265.605c.03.075.075.136.098.166l.393.726.499.695.56.627c.196.197.392.363.627.56l.657.499c.227.166.454.302.726.43.245.141.5.263.764.363.196.099.43.167.657.227.227.06.431.136.56.166-.099 1.785-.136 3.478.136 4.067.302.658 1.753-1.36 3.205-3.666-.197 2.283-.333 4.959 0 5.745.332.786 2.343-1.754 4.067-4.596 23.433-5.42 44.826 10.78 47.07 33.654-.43-3.568-4.822-5.556-6.84-5.065-.983 2.45-2.676 5.594-5.39 7.537.227-2.193.128-4.43-.333-6.615a21.393 21.393 0 0 1-4.097 8.33c-3.137.227-6.274-1.285-7.937-3.567-.136-.099-.166-.303-.264-.431l-.265-.696a2.517 2.517 0 0 1-.197-.695c-.03-.242-.03-.454-.03-.726v-.499c.03-.227.099-.453.167-.695l.226-.696c.136-.226.227-.453.393-.695.56-1.512.56-2.873-.453-3.629a3.79 3.79 0 0 0-.628-.332c-.136-.03-.302-.098-.43-.136l-.265-.098-.695-.167a2.495 2.495 0 0 0-.696-.098 5.381 5.381 0 0 0-.726-.068c-.166 0-.332.03-.498.03a2.57 2.57 0 0 0-.726.098l-.696.129-.695.227-.658.302-.627.333c-7.71 5.026-3.1 16.781 2.147 20.198-1.98.363-4.007.794-4.558 1.224 1.36.923 2.842 1.663 4.399 2.283l5.352 1.512c2.744.605 5.518.794 8.33.628a31.446 31.446 0 0 0 28.823-26.843l.197.862.302 1.852.136.892.076.982.076 1.089v.529c0 .166.03.363.03.53 0 .165-.03.392-.03.604v.453c0 .227-.03.431-.03.658 0 .129 0 .265-.031.43l-.03.727c-.03.098-.03.196-.03.302l-.099.756c0 .098 0 .196-.03.302l-.128.96v.076l-.197.922-.197.983-.264 1.028-.265 1.028-.332 1.058-.726 1.92-.393.96-.454.922c-.03.099-.075.167-.098.227a31.493 31.493 0 0 1-9.358 11.203c-.265.166-.53.363-.794.559-.076.076-.166.099-.227.167l-.725.499.098.196h.03l1.391-.196h.03l2.57-.454c.227-.03.5-.098.726-.166l.454-.099.695-.128.605-.166c3.303-.794 6.5-1.89 9.585-3.175-5.254 7.181-12.299 12.956-20.53 16.759 3.801-.265 7.604-.892 11.262-1.951 13.32-3.931 24.53-12.888 31.243-24.96a52.773 52.773 0 0 1-8.89 21.256 52.438 52.438 0 0 0 8.829-7.332 52.392 52.392 0 0 0 13.917-28.098 52.501 52.501 0 0 1 .96 15.935c23.864-33.29 1.98-67.806-7.182-76.892-.03-.076-.075-.098-.075-.166-.076.393-.099.793-.129 1.186-.098.756-.196 1.49-.332 2.215-.136.726-.363 1.452-.56 2.192-.196.741-.499 1.421-.793 2.117a23.83 23.83 0 0 1-.983 2.018 22.796 22.796 0 0 1-1.187 1.883 23.498 23.498 0 0 1-1.361 1.784 24.642 24.642 0 0 1-1.557 1.655c-.332.302-.627.56-.96.831l-.756.658c-.59.468-1.209.9-1.852 1.293-.631.407-1.282.783-1.95 1.126-.695.333-1.39.627-2.086.922a23.28 23.28 0 0 1-2.147.696 29.17 29.17 0 0 1-2.215.499c-.726.136-1.512.196-2.245.264-.53.03-1.058.076-1.512.076-.756 0-1.512-.076-2.245-.136a16.707 16.707 0 0 1-2.253-.333c-.75-.136-1.49-.322-2.215-.56h-.03c.726-.075 1.452-.135 2.192-.264a24.636 24.636 0 0 0 4.362-1.194c.695-.265 1.421-.605 2.086-.922.678-.33 1.339-.694 1.98-1.089.628-.43 1.256-.862 1.853-1.323.592-.46 1.155-.958 1.686-1.489.559-.499 1.058-1.058 1.557-1.618.499-.559.96-1.186 1.39-1.784.076-.098.137-.226.197-.332l.96-1.512c.363-.658.696-1.323.983-2.018.287-.696.559-1.391.794-2.117.234-.726.393-1.421.559-2.147.166-.726.265-1.489.333-2.215.068-.725.128-1.511.128-2.245 0-.529-.03-1.058-.075-1.511a65.189 65.189 0 0 0-.265-2.215 24.293 24.293 0 0 0-.499-2.215c-.227-.696-.453-1.421-.726-2.117a27.594 27.594 0 0 0-.922-2.04 18.864 18.864 0 0 0-1.134-1.951 25.823 25.823 0 0 0-1.323-1.814L96.24 8.043c-.28-.283-.567-.558-.862-.824a60.847 60.847 0 0 0-4.596-3.243 8.953 8.953 0 0 0-.658-.332c-1.088-.696-2.116-1.059-3.137-1.391l-.113-.114Z" clip-rule="evenodd"/></svg>
